X: 37
T:Very Favorite Duett. TLY.036
M:3/4
L:1/8
Q:120
S:Wm.Tildesley,Swinton,Lancs.1860s.
O:England.
A:Lancashire.
H:1860.
Z:vmp.Taz Tarry.
K:D
f4 gf/2g/2|a2 f2 d2|b3 c'd'b|a2 f2 d2|!
e3 fge| fdfad'b|(ba)(ag)(gf)|f4e2:|!
|:e3 fge|  fdfad'b| baaggf|f4 e2|f4 gf/2g2|a2f2d2|!
b3 c'd'b| a2 f2 d2|e3 fge|fdfad'b | agfedc|d4 d2:|!
|:fdfdge| afgefd|bfbfd'b|afgefd|!
Acegec|dfac'd'b|afgefd|1fedcBA:|2f4 e2||!
|:Acegec|dfac'd'b|afgefd| f4 e2|fdfdge| afgefd|!
bgbgd'b|afgefd|Acegec|dfac'd'b|agfedc|d4 d2|]
